src/assets/flags/rw.svg

<?xml version="1.0" encoding="UTF-8"?>
<svg xmlns="http://www.w3.org/2000/svg" xmlns:xlink="http://www.w3.org/1999/xlink" width="25px" height="px" viewBox="0 0 25 19" version="1.1">
<g id="surface1">
<rect x="0" y="0" width="25" height="19" style="fill:rgb(12.54902%,37.64706%,23.921569%);fill-opacity:1;stroke:none;"/>
<path style=" stroke:none;fill-rule:nonzero;fill:rgb(98.039216%,82.352942%,0.392157%);fill-opacity:1;" d="M 0 0 L 25 0 L 25 14.25 L 0 14.25 Z M 0 0 "/>
<path style=" stroke:none;fill-rule:nonzero;fill:rgb(0%,63.137257%,87.058824%);fill-opacity:1;" d="M 0 0 L 25 0 L 25 9.5 L 0 9.5 Z M 0 0 "/>
<path style=" stroke:none;fill-rule:nonzero;fill:rgb(89.803922%,74.509805%,0.392157%);fill-opacity:1;" d="M 22.984375 4.964844 L 20.890625 5.085938 L 22.878906 5.757812 L 20.828125 5.328125 L 22.582031 6.496094 L 20.707031 5.539062 L 22.097656 7.128906 L 20.53125 5.71875 L 21.472656 7.617188 L 20.320312 5.84375 L 20.742188 7.917969 L 20.082031 5.90625 L 19.960938 8.027344 L 19.933594 4.9375 Z M 22.984375 4.964844 "/>
<path style=" stroke:none;fill-rule:nonzero;fill:rgb(89.803922%,74.509805%,0.392157%);fill-opacity:1;" d="M 22.984375 4.964844 L 20.890625 4.839844 L 22.878906 4.167969 L 20.828125 4.597656 L 22.582031 3.433594 L 20.707031 4.386719 L 22.097656 2.796875 L 20.53125 4.210938 L 21.472656 2.308594 L 20.320312 4.085938 L 20.742188 2.007812 L 20.082031 4.023438 L 19.960938 1.898438 L 19.933594 4.988281 Z M 22.984375 4.964844 "/>
<path style=" stroke:none;fill-rule:nonzero;fill:rgb(89.803922%,74.509805%,0.392157%);fill-opacity:1;" d="M 16.9375 4.964844 L 19.03125 5.085938 L 17.042969 5.757812 L 19.09375 5.328125 L 17.339844 6.496094 L 19.214844 5.539062 L 17.824219 7.128906 L 19.390625 5.71875 L 18.449219 7.617188 L 19.601562 5.84375 L 19.179688 7.917969 L 19.839844 5.90625 L 19.960938 8.027344 L 19.988281 4.9375 Z M 16.9375 4.964844 "/>
<path style=" stroke:none;fill-rule:nonzero;fill:rgb(89.803922%,74.509805%,0.392157%);fill-opacity:1;" d="M 16.9375 4.964844 L 19.03125 4.839844 L 17.042969 4.167969 L 19.09375 4.597656 L 17.339844 3.433594 L 19.214844 4.386719 L 17.824219 2.796875 L 19.390625 4.210938 L 18.449219 2.308594 L 19.601562 4.085938 L 19.179688 2.007812 L 19.839844 4.023438 L 19.960938 1.898438 L 19.988281 4.988281 Z M 16.9375 4.964844 "/>
<path style="fill-rule:nonzero;fill:rgb(89.803922%,74.509805%,0.392157%);fill-opacity:1;stroke-width:3.4;stroke-linecap:butt;stroke-linejoin:miter;stroke:rgb(0%,63.137257%,87.058824%);stroke-opacity:1;stroke-miterlimit:4;" d="M 34.349827 0.0414449 C 34.349827 -18.905828 18.899905 -34.300487 0 -34.300487 C -18.899905 -34.300487 -34.349827 -18.905828 -34.349827 0.0414449 C -34.349827 18.988718 -18.899905 34.235352 0 34.235352 C 18.899905 34.235352 34.349827 18.988718 34.349827 0.0414449 Z M 34.349827 0.0414449 " transform="matrix(0.0260418,0,0,0.026389,19.960938,4.96375)"/>
</g>
</svg>

<svg xmlns="http://www.w3.org/2000/svg" width="25" height="px" viewBox="0 0 25 19"><path d="M0 0h25v19H0z" style="fill:#20603d;fill-opacity:1;stroke:none"/><path d="M0 0h25v14.25H0Zm0 0" style="stroke:none;fill-rule:nonzero;fill:#fad201;fill-opacity:1"/><path d="M0 0h25v9.5H0Zm0 0" style="stroke:none;fill-rule:nonzero;fill:#00a1de;fill-opacity:1"/><path d="m22.984 4.965-2.093.12 1.988.673-2.05-.43 1.753 1.168-1.875-.957 1.39 1.59-1.566-1.41.942 1.898-1.153-1.773.422 2.074-.66-2.012-.121 2.121-.027-3.09Zm0 0" style="stroke:none;fill-rule:nonzero;fill:#e5be01;fill-opacity:1"/><path d="m22.984 4.965-2.093-.125 1.988-.672-2.05.43 1.753-1.164-1.875.953 1.39-1.59-1.566 1.414.942-1.902-1.153 1.777.422-2.078-.66 2.015-.121-2.125-.027 3.09Zm0 0" style="stroke:none;fill-rule:nonzero;fill:#e5be01;fill-opacity:1"/><path d="m16.938 4.965 2.093.12-1.988.673 2.05-.43-1.753 1.168 1.875-.957-1.39 1.59 1.566-1.41-.942 1.898 1.153-1.773-.422 2.074.66-2.012.12 2.121.028-3.09Zm0 0" style="stroke:none;fill-rule:nonzero;fill:#e5be01;fill-opacity:1"/><path d="m16.938 4.965 2.093-.125-1.988-.672 2.05.43-1.753-1.164 1.875.953-1.39-1.59L19.39 4.21l-.942-1.902 1.153 1.777-.422-2.078.66 2.015.12-2.125.028 3.09Zm0 0" style="stroke:none;fill-rule:nonzero;fill:#e5be01;fill-opacity:1"/><path d="M34.35.041C34.35-18.906 18.9-34.3 0-34.3S-34.35-18.906-34.35.04-18.9 34.235 0 34.235 34.35 18.99 34.35.041Zm0 0" style="fill-rule:nonzero;fill:#e5be01;fill-opacity:1;stroke-width:3.4;stroke-linecap:butt;stroke-linejoin:miter;stroke:#00a1de;stroke-opacity:1;stroke-miterlimit:4" transform="matrix(.02604 0 0 .02639 19.96 4.964)"/></svg>
